X: 06044
T: LIZ CARROLL'S REEL
C: Bob McQuillen 12 July 82
B: Bob's Note Book 6 #44
%R: reel
Z: 2021 John Chambers <jc:trillian.mit.edu>
M: C
L: 1/8
K: D
|:DFAB ABdf | edfe faba | f2ef d2Bd | AdBd AFEF |\
| DFAB ABdf | efed B2df | e2fe dBAB | ABdf edBd :|
|:f2fa fdfe | d2df efdB | ABdf e2fe | d2Ad BAFE |\
| D2DF EDFE | DFAd B2AB | d2DF EFAB | dBAB AFED :|
%%begintext align
%% Irish Music
%% Week at Augusta, and here's a tune
%% for a very favorite fiddler. Your music
%% is truly exquisite, Liz. We just love to
%% hear you play. Thanks so much for a
%% truly great week.
%%endtext

%%sep 1 1 500

%%sep 1 1 500

